(Exported by FreeCAD)
(Post Processor: refactored_grbl_post)
(Cam File: boxtest1.fcstd)
(Output Time:2022-06-02 00:34:52.234060)
(Begin preamble)
G17 G90
G21
(Begin operation: G56)
(Path: G56)
G56
G0 Z9.000
(Finish operation: G56)
(Begin operation: 5mm Endmill006)
(Path: 5mm Endmill006)
(5mm Endmill006)
(Begin toolchange)
( M6 T2 )
M3 S123
(Finish operation: 5mm Endmill006)
(Begin operation: Profile002)
(Path: Profile002)
(Profile002)
(Compensated Tool Path. Diameter: 5.0)
G0 Z9.000
G0 X0.000 Y0.000
G0 X-2.500 Y0.000
G0 X-2.500 Y0.000 Z7.000
G1 X-2.500 Y0.000 Z-1.000 F340.200
G1 X-2.500 Y3.000 Z-1.000 F140.400
G2 X0.000 Y5.500 Z-1.000 I2.500 J0.000 K0.000 F140.400
G1 X3.000 Y5.500 Z-1.000 F140.400
G2 X5.500 Y3.000 Z-1.000 I0.000 J-2.500 K0.000 F140.400
G1 X5.500 Y0.000 Z-1.000 F140.400
G2 X3.000 Y-2.500 Z-1.000 I-2.500 J0.000 K0.000 F140.400
G1 X0.000 Y-2.500 Z-1.000 F140.400
G2 X-2.500 Y0.000 Z-1.000 I0.000 J2.500 K0.000 F140.400
G0 Z9.000
G0 Z9.000
(Finish operation: Profile002)
(Begin postamble)
M5
G17 G90
M2
