;Exported by FreeCAD
;Post Processor: refactored_centroid_post
;Cam File: boxtest1.fcstd
;Output Time:2022-06-05 22:31:09.397608
G90 G80 G40 G49
;T1=_mm_Endmill
;Begin preamble
G53 G00 G17
G20
;Begin operation
G54
G0 Z0.3543
;End operation: G54
;Begin operation
;5mm Endmill001
;Begin toolchange
M6 T1
M3 S123
;End operation: 5mm Endmill001
;Begin operation
;Profile
;Compensated Tool Path. Diameter: 5.0
G0 Z0.3543
G0 X0.0000 Y0.0000
G0 Y-0.0984
G0 Y-0.0984 Z0.2756
G1 X0.0000 Y-0.0984 Z-0.0394 F13.4
G2 X-0.0984 Y0.0000 Z-0.0394 I0.0000 J0.0984 F5.5
G1 X-0.0984 Y0.1181 Z-0.0394 F5.5
G2 X0.0000 Y0.2165 Z-0.0394 I0.0984 J0.0000 F5.5
G1 X0.1181 Y0.2165 Z-0.0394 F5.5
G2 X0.2165 Y0.1181 Z-0.0394 I0.0000 J-0.0984 F5.5
G1 X0.2165 Y0.0000 Z-0.0394 F5.5
G2 X0.1181 Y-0.0984 Z-0.0394 I-0.0984 J0.0000 F5.5
G1 X0.0000 Y-0.0984 Z-0.0394 F5.5
G0 Z0.3543
G0 Z0.3543
;End operation: Profile
;Begin postamble
M5
M25
G49 H0
G90 G80 G40 G49
M99
