(Exported by FreeCAD)
(Post Processor: refactored_linuxcnc_post)
(Cam File: boxtest1.fcstd)
(Output Time:2022-06-02 00:32:09.770806)
(Begin preamble)
G17 G54 G40 G49 G80 G90
G21
(Begin operation: G54)
(Machine units: mm/min)
G54
G0 Z9.000
(Finish operation: G54)
(Begin operation: 5mm Endmill006)
(Machine units: mm/min)
(5mm Endmill006)
(Begin toolchange)
M5
M6 T2
G43 H2
M3 S123
(Finish operation: 5mm Endmill006)
(Begin operation: Profile002)
(Machine units: mm/min)
(Profile002)
(Compensated Tool Path. Diameter: 5.0)
G0 Z9.000
G0 X0.000 Y0.000
G0 X-2.500 Y0.000
G0 X-2.500 Y0.000 Z7.000
G1 X-2.500 Y0.000 Z-1.000 F340.200
G1 X-2.500 Y3.000 Z-1.000 F140.400
G2 X0.000 Y5.500 Z-1.000 I2.500 J0.000 F140.400
G1 X3.000 Y5.500 Z-1.000 F140.400
G2 X5.500 Y3.000 Z-1.000 I0.000 J-2.500 F140.400
G1 X5.500 Y0.000 Z-1.000 F140.400
G2 X3.000 Y-2.500 Z-1.000 I-2.500 J0.000 F140.400
G1 X0.000 Y-2.500 Z-1.000 F140.400
G2 X-2.500 Y0.000 Z-1.000 I0.000 J2.500 F140.400
G0 Z9.000
G0 Z9.000
(Finish operation: Profile002)
(Begin postamble)
M05
G17 G54 G90 G80 G40
M2
