;Exported by FreeCAD
;Post Processor: refactored_centroid_post
;Cam File: boxtest1.fcstd
;Output Time:2022-06-02 00:24:36.471278
G90 G80 G40 G49
;T1=_mm_Endmill
;Begin preamble
G53 G00 G17
G90
G21
;Begin operation
G54
G0 Z9.0000
;End operation: G54
;Begin operation
;5mm Endmill001
;Begin toolchange
M6 T1
M3 S123
;End operation: 5mm Endmill001
;Begin operation
;Profile
;Compensated Tool Path. Diameter: 5.0
G0 Z9.0000
G0 X0.0000 Y0.0000
G0 Y-2.5000
G0 Y-2.5000 Z7.0000
G1 X0.0000 Y-2.5000 Z-1.0000 F340.2
G2 X-2.5000 Y0.0000 Z-1.0000 I0.0000 J2.5000 F140.4
G1 X-2.5000 Y3.0000 Z-1.0000 F140.4
G2 X0.0000 Y5.5000 Z-1.0000 I2.5000 J0.0000 F140.4
G1 X3.0000 Y5.5000 Z-1.0000 F140.4
G2 X5.5000 Y3.0000 Z-1.0000 I0.0000 J-2.5000 F140.4
G1 X5.5000 Y0.0000 Z-1.0000 F140.4
G2 X3.0000 Y-2.5000 Z-1.0000 I-2.5000 J0.0000 F140.4
G1 X0.0000 Y-2.5000 Z-1.0000 F140.4
G0 Z9.0000
G0 Z9.0000
;End operation: Profile
;Begin postamble
M5
M25
G49 H0
G90 G80 G40 G49
M99
