(Exported by FreeCAD)
(Post Processor: grbl_post)
(Output Time:2022-06-02 00:50:33.388194)
(Begin preamble)
G17 G90
G21
(Begin operation: G55)
(Path: G55)
G55
G0 Z9.000
(Finish operation: G55)
(Begin operation: 5mm Endmill003)
(Path: 5mm Endmill003)
(5mm Endmill003)
(Begin toolchange)
( M6 T2 )
M4 S123
(Finish operation: 5mm Endmill003)
(Begin operation: Profile001)
(Path: Profile001)
(Profile001)
(Compensated Tool Path. Diameter: 5.0)
G0 Z9.000
G0 X0.000 Y0.000
G0 Y-2.500
G0 Y-2.500 Z7.000
G1 X0.000 Y-2.500 Z-1.000 F340.200
G1 X3.000 Y-2.500 Z-1.000 F140.400
G3 X5.500 Y0.000 Z-1.000 I0.000 J2.500 K0.000 F140.400
G1 X5.500 Y3.000 Z-1.000 F140.400
G3 X3.000 Y5.500 Z-1.000 I-2.500 J0.000 K0.000 F140.400
G1 X0.000 Y5.500 Z-1.000 F140.400
G3 X-2.500 Y3.000 Z-1.000 I0.000 J-2.500 K0.000 F140.400
G1 X-2.500 Y0.000 Z-1.000 F140.400
G3 X0.000 Y-2.500 Z-1.000 I2.500 J0.000 K0.000 F140.400
G0 Z9.000
G0 Z9.000
(Finish operation: Profile001)
(Begin postamble)
M5
G17 G90
M2
